X:1
T: The Old Walls of Liscarroll
C:
R:Jig
Q:180
K:D
M:6/8
L:1/16
|:AB|=c2B2c2 d2c2d2|e2=c2B2 A2G2E2|=c2B2d2 c2B2A2|G2E2=F2 G2A2B2|
=c2B2c2 d2c2d2|e2=c2B2 A2c2e2|e2=c2A2 A2G2E2|E2A2A2 A4:|
K:A
|:e2|a2g2a2 A2c2e2|a2g2f2 e2d2c2|d2c2d2 E2G2B2|A2c2f2 e2f2g2|
a2g2a2 A2c2e2|a2g2f2 e2d2c2|d2c2d2 E2G2B2|A2c2e2 a4:|
